usr/share/icons/biglinux-icons-material-dark/22/actions/mail-reply-sender.svg

<svg xmlns="http://www.w3.org/2000/svg" viewBox="0 0 22 22">
  <defs id="defs3051">
    <style type="text/css" id="current-color-scheme">
      .ColorScheme-Text {
        color:#dedede;
      }
      </style>
  </defs>
 <path 
    style="fill:currentColor;fill-opacity:1;stroke:none" 
    d="M 1 3 L 1 12 L 2 12 L 2 4.2226562 L 2 4 L 2.0488281 4 L 2.2714844 4.2226562 L 8.0234375 9.9765625 L 6 12 L 7.4140625 12 L 8.7304688 10.683594 L 10.183594 12.134766 L 11 12.949219 L 11.001953 12.949219 L 11.816406 12.134766 L 13.269531 10.683594 L 19.537109 16.951172 L 20 17.414062 L 20 18 L 14 18 L 8 18 L 8 19 L 14 19 L 20 19 L 21 19 L 21 18.414062 L 21 18 L 21 12 L 21 4 L 21 3 L 20 3 L 19.537109 3 L 2.4628906 3 L 2 3 L 1.0488281 3 L 1 3 z M 3.4628906 4 L 18.537109 4 L 11 11.537109 L 3.4628906 4 z M 19.951172 4 L 20 4 L 20 4.2226562 L 20 12 L 20 16 L 13.976562 9.9765625 L 19.728516 4.2226562 L 19.951172 4 z M 4 13 L 1 16 L 4 19 L 4 17 L 5 17 L 6 17 L 6 15 L 5 15 L 4 15 L 4 13 z "
    class="ColorScheme-Text"
    />  
</svg>

<svg xmlns="http://www.w3.org/2000/svg" viewBox="0 0 22 22">
<defs id="defs3051">
<style id="current-color-scheme" type="text/css">
.ColorScheme-Text{color:#dedede}
</style>
</defs>
<path d="M1 3v9h1V4h.049l.222.223 5.752 5.754L6 12h1.414l1.316-1.316 1.454 1.45.816.815h.002l.814-.814 1.454-1.451 6.267 6.267.463.463V18H8v1h13V3zm2.463 1h15.074L11 11.537zM19.95 4H20v12l-6.023-6.023 5.752-5.754zM4 13l-3 3 3 3v-2h2v-2H4z" class="ColorScheme-Text" style="fill:currentColor;fill-opacity:1;stroke:none"/>
</svg>
